X: 1
T: I Wish I Never Saw You
M: 4/4
L: 1/8
R: reel
K: Gmaj
edBA [G3D3]A|BdAc BEEF|~G3E DEGA|BGdB A2Bd| 
edBA ~G3A|B2Ac BEEF|~G3E DEGB|dBAc BG~G2||
dedc BG (3Bcd|eaaf gfeg|dedc BGBd|(3efg fa ~g3e|
dedc BG (3Bcd|eaaf gfeg|~d3g ~e3g|fgaf ~g3d||
